images/icons/schedule.svg

<?xml version="1.0" encoding="UTF-8"?>
<svg width="48px" height="48px" viewBox="0 0 48 48" version="1.1" xmlns="http://www.w3.org/2000/svg" xmlns:xlink="http://www.w3.org/1999/xlink">
    <title>Combined Shape</title>
    <defs>
        <linearGradient x1="50%" y1="0%" x2="54.2780009%" y2="97.5048149%" id="linearGradient-1">
            <stop stop-color="#2FBEFF" offset="0%"></stop>
            <stop stop-color="#2930C3" offset="100%"></stop>
        </linearGradient>
        <path d="M78,86.4000218 L78,88 L30,88 L30,86.4000218 L78,86.4000218 Z M39.6,78.400131 C40.0418,78.400131 40.4,78.7583261 40.4,79.2001201 L40.4,79.2001201 L40.4,84.0000546 C40.4,84.4418486 40.0418,84.8000437 39.6,84.8000437 L39.6,84.8000437 L34,84.8000437 C33.5582,84.8000437 33.2,84.4418486 33.2,84.0000546 L33.2,84.0000546 L33.2,79.2001201 C33.2,78.7583261 33.5582,78.400131 34,78.400131 L34,78.400131 Z M48.4,76.0001638 C48.8418,76.0001638 49.2,76.3583589 49.2,76.8001529 L49.2,76.8001529 L49.2,84.0000546 C49.2,84.4418486 48.8418,84.8000437 48.4,84.8000437 L48.4,84.8000437 L42.8,84.8000437 C42.3582,84.8000437 42,84.4418486 42,84.0000546 L42,84.0000546 L42,76.8001529 C42,76.3583589 42.3582,76.0001638 42.8,76.0001638 L42.8,76.0001638 Z M57.2,72.0002184 C57.6418,72.0002184 58,72.3584135 58,72.8002075 L58,72.8002075 L58,84.0000546 C58,84.4418486 57.6418,84.8000437 57.2,84.8000437 L57.2,84.8000437 L51.6,84.8000437 C51.1582,84.8000437 50.8,84.4418486 50.8,84.0000546 L50.8,84.0000546 L50.8,72.8002075 C50.8,72.3584135 51.1582,72.0002184 51.6,72.0002184 L51.6,72.0002184 Z M66,66.4002948 C66.4418,66.4002948 66.8,66.7584899 66.8,67.2002839 L66.8,67.2002839 L66.8,84.0000546 C66.8,84.4418486 66.4418,84.8000437 66,84.8000437 L66,84.8000437 L60.4,84.8000437 C59.9582,84.8000437 59.6,84.4418486 59.6,84.0000546 L59.6,84.0000546 L59.6,67.2002839 C59.6,66.7584899 59.9582,66.4002948 60.4,66.4002948 L60.4,66.4002948 Z M74.8,55.2004477 C75.2418,55.2004477 75.6,55.5586428 75.6,56.0004367 L75.6,56.0004367 L75.6,84.0000546 C75.6,84.4418486 75.2418,84.8000437 74.8,84.8000437 L74.8,84.8000437 L69.2,84.8000437 C68.7582,84.8000437 68.4,84.4418486 68.4,84.0000546 L68.4,84.0000546 L68.4,56.0004367 C68.4,55.5586428 68.7582,55.2004477 69.2,55.2004477 L69.2,55.2004477 Z M38.8,80.0001092 L34.8,80.0001092 L34.8,83.2000655 L38.8,83.2000655 L38.8,80.0001092 Z M47.6,77.6001419 L43.6,77.6001419 L43.6,83.2000655 L47.6,83.2000655 L47.6,77.6001419 Z M56.4,73.6001965 L52.4,73.6001965 L52.4,83.2000655 L56.4,83.2000655 L56.4,73.6001965 Z M65.2,68.000273 L61.2,68.000273 L61.2,83.2000655 L65.2,83.2000655 L65.2,68.000273 Z M74,56.8004258 L70,56.8004258 L70,83.2000655 L74,83.2000655 L74,56.8004258 Z M72.1434058,40.0424146 C72.5164847,39.9154535 72.9351417,40.080604 73.116,40.4430491 L73.116,40.4430491 L76.316,46.8429617 C76.5135,47.2384563 76.3531,47.7190498 75.9576,47.9165471 C75.5622,48.1140444 75.0815,47.9535466 74.884,47.558152 L74.884,47.558152 L72.5304,42.8502162 L71.2392,46.5397659 C65.4734,62.9698416 50.6157,74.4973843 33.268,76.0001638 L33.268,76.0001638 L33.132,74.4001856 C49.8498,72.9518054 64.1687,61.844357 69.728,46.0117731 L69.728,46.0117731 L70.9928,42.4006224 L66.3576,44.7165908 C65.9622,44.9140881 65.4815,44.7535902 65.284,44.3581956 C65.0865,43.962801 65.247,43.4821076 65.6424,43.2846103 L65.6424,43.2846103 L72.0424,40.084654 L72.0424,40.084654 Z M41.2,54.4004586 L41.2,56.0004367 L34,56.0004367 L34,54.4004586 L41.2,54.4004586 Z M41.2,51.2005023 L41.2,52.8004804 L34,52.8004804 L34,51.2005023 L41.2,51.2005023 Z M44.4,48.0005459 L44.4,49.6005241 L34,49.6005241 L34,48.0005459 L44.4,48.0005459 Z M44.4,44.8005896 L44.4,46.4005678 L34,46.4005678 L34,44.8005896 L44.4,44.8005896 Z" id="path-2"></path>
    </defs>
    <g id="Design" stroke="none" stroke-width="1" fill="none" fill-rule="evenodd">
        <g id="XL" transform="translate(-315.000000, -2494.000000)" fill-rule="nonzero">
            <g id="Group-14" transform="translate(285.000000, 1864.000000)">
                <g id="Combined-Shape" transform="translate(0.000000, 590.000000)">
                    <use fill="url(#linearGradient-1)" xlink:href="#path-2"></use>
                    <use fill="#2FBEFF" xlink:href="#path-2"></use>
                </g>
            </g>
        </g>
    </g>
</svg>

<svg width="48" height="48" xmlns="http://www.w3.org/2000/svg" xmlns:xlink="http://www.w3.org/1999/xlink"><defs><linearGradient x1="50%" y1="0%" x2="54.278%" y2="97.505%" id="linearGradient-1"><stop stop-color="#2FBEFF" offset="0%"/><stop stop-color="#2930C3" offset="100%"/></linearGradient><path d="M78 86.4V88H30v-1.6h48zm-38.4-8a.8.8 0 01.8.8V84a.8.8 0 01-.8.8H34a.8.8 0 01-.8-.8v-4.8a.8.8 0 01.8-.8zm8.8-2.4a.8.8 0 01.8.8V84a.8.8 0 01-.8.8h-5.6a.8.8 0 01-.8-.8v-7.2a.8.8 0 01.8-.8zm8.8-4a.8.8 0 01.8.8V84a.8.8 0 01-.8.8h-5.6a.8.8 0 01-.8-.8V72.8a.8.8 0 01.8-.8zm8.8-5.6a.8.8 0 01.8.8V84a.8.8 0 01-.8.8h-5.6a.8.8 0 01-.8-.8V67.2a.8.8 0 01.8-.8zm8.8-11.2a.8.8 0 01.8.8v28a.8.8 0 01-.8.8h-5.6a.8.8 0 01-.8-.8V56a.8.8 0 01.8-.8zM38.8 80h-4v3.2h4V80zm8.8-2.4h-4v5.6h4v-5.6zm8.8-4h-4v9.6h4v-9.6zm8.8-5.6h-4v15.2h4V68zM74 56.8h-4v26.4h4V56.8zm-1.857-16.758a.8.8 0 01.973.401l3.2 6.4a.8.8 0 11-1.432.715L72.53 42.85l-1.29 3.69A44.292 44.292 0 0133.267 76l-.136-1.6a42.692 42.692 0 0036.596-28.388l1.265-3.611-4.635 2.316a.8.8 0 01-.716-1.432l6.4-3.2zM41.2 54.4V56H34v-1.6h7.2zm0-3.2v1.6H34v-1.6h7.2zm3.2-3.2v1.6H34V48h10.4zm0-3.2v1.6H34v-1.6h10.4z" id="path-2"/></defs><g id="Design" stroke="none" stroke-width="1" fill="none" fill-rule="evenodd"><g id="XL" transform="translate(-315 -2494)" fill-rule="nonzero"><g id="Group-14" transform="translate(285 1864)"><g id="Combined-Shape" transform="translate(0 590)"><use fill="url(#linearGradient-1)" xlink:href="#path-2"/><use fill="#2FBEFF" xlink:href="#path-2"/></g></g></g></g></svg>
